images/icon/heart.svg

<?xml version="1.0" encoding="UTF-8"?>
<svg xmlns="http://www.w3.org/2000/svg" xmlns:xlink="http://www.w3.org/1999/xlink" width="15pt" height="15pt" viewBox="0 0 15 15" version="1.1">
<g id="surface1">
<path style=" stroke:none;fill-rule:nonzero;fill:rgb(0%,0%,0%);fill-opacity:1;" d="M 7.5 14.164062 C 7.285156 14.164062 7.082031 14.089844 6.921875 13.949219 C 6.3125 13.417969 5.730469 12.917969 5.214844 12.480469 L 5.210938 12.476562 C 3.699219 11.191406 2.394531 10.078125 1.488281 8.984375 C 0.472656 7.757812 0 6.597656 0 5.328125 C 0 4.097656 0.421875 2.957031 1.191406 2.125 C 1.964844 1.285156 3.03125 0.820312 4.191406 0.820312 C 5.054688 0.820312 5.847656 1.09375 6.546875 1.632812 C 6.898438 1.90625 7.21875 2.238281 7.5 2.628906 C 7.78125 2.238281 8.101562 1.90625 8.453125 1.632812 C 9.152344 1.09375 9.945312 0.820312 10.808594 0.820312 C 11.96875 0.820312 13.035156 1.285156 13.808594 2.125 C 14.578125 2.957031 15 4.097656 15 5.328125 C 15 6.597656 14.527344 7.757812 13.511719 8.984375 C 12.605469 10.078125 11.300781 11.191406 9.789062 12.476562 C 9.273438 12.917969 8.6875 13.417969 8.078125 13.949219 C 7.917969 14.089844 7.714844 14.164062 7.5 14.164062 Z M 4.191406 1.699219 C 3.28125 1.699219 2.445312 2.0625 1.835938 2.722656 C 1.21875 3.390625 0.878906 4.316406 0.878906 5.328125 C 0.878906 6.394531 1.273438 7.347656 2.164062 8.421875 C 3.023438 9.460938 4.300781 10.546875 5.78125 11.808594 L 5.785156 11.8125 C 6.300781 12.253906 6.886719 12.753906 7.5 13.285156 C 8.113281 12.75 8.699219 12.25 9.21875 11.808594 C 10.699219 10.546875 11.976562 9.460938 12.835938 8.421875 C 13.726562 7.347656 14.121094 6.394531 14.121094 5.328125 C 14.121094 4.316406 13.78125 3.390625 13.164062 2.722656 C 12.554688 2.0625 11.71875 1.699219 10.808594 1.699219 C 10.144531 1.699219 9.53125 1.910156 8.992188 2.328125 C 8.507812 2.703125 8.171875 3.171875 7.976562 3.503906 C 7.875 3.671875 7.695312 3.773438 7.5 3.773438 C 7.304688 3.773438 7.125 3.671875 7.023438 3.503906 C 6.828125 3.171875 6.492188 2.703125 6.007812 2.328125 C 5.46875 1.910156 4.855469 1.699219 4.191406 1.699219 Z M 4.191406 1.699219 "/>
</g>
</svg>

<svg xmlns="http://www.w3.org/2000/svg" width="20" height="20" viewBox="0 0 15 15"><path d="M7.5 14.164a.869.869 0 01-.578-.215c-.61-.531-1.192-1.031-1.707-1.469l-.004-.003c-1.512-1.286-2.816-2.399-3.723-3.493C.473 7.758 0 6.598 0 5.328c0-1.23.422-2.371 1.191-3.203a4.032 4.032 0 013-1.305 3.78 3.78 0 012.356.813c.351.273.672.605.953.996a4.83 4.83 0 01.953-.996A3.78 3.78 0 0110.81.82c1.16 0 2.226.465 3 1.305.77.832 1.191 1.973 1.191 3.203 0 1.27-.473 2.43-1.488 3.656-.907 1.094-2.211 2.207-3.723 3.493-.516.441-1.101.941-1.71 1.472a.869.869 0 01-.579.215zM4.191 1.7c-.91 0-1.746.363-2.355 1.024-.617.668-.957 1.593-.957 2.605 0 1.067.394 2.02 1.285 3.094.86 1.039 2.137 2.125 3.617 3.387l.004.004c.516.44 1.102.94 1.715 1.472.613-.535 1.2-1.035 1.719-1.476 1.48-1.262 2.758-2.348 3.617-3.387.89-1.074 1.285-2.027 1.285-3.094 0-1.012-.34-1.937-.957-2.605A3.167 3.167 0 0010.809 1.7c-.664 0-1.278.211-1.817.63a4.19 4.19 0 00-1.015 1.175.556.556 0 01-.954 0 4.209 4.209 0 00-1.015-1.176A2.907 2.907 0 004.19 1.7zm0 0" id="surface1"/></svg>
